assets/Ear with hearing aid/Light/Flat/ear_with_hearing_aid_flat_light.svg

<svg width="32" height="32" viewBox="0 0 32 32" fill="none" xmlns="http://www.w3.org/2000/svg">
<path d="M26.9688 11H28.5C28.7761 11 29 11.2239 29 11.5V15.5C29 15.7761 28.7761 16 28.5 16H26.9688V11Z" fill="#E1D8EC"/>
<path d="M16.7616 2.97675L17 2.5C19.3333 2.66667 24.3 4.2 25.5 9C26.7 13.8 24.3333 18 23 19.5L22.0912 19.9544L19.7548 24.1395C19.5508 24.5102 19.3479 24.875 19.1452 25.2315C19.0796 25.3395 19.01 25.4572 18.9359 25.5826C17.9955 27.1734 16.3245 30 12.7834 30C9.73951 30 7 27.2083 7 23.3603V11.7107C7 7.03275 10.6527 2.9584 16.1013 2.9584C16.3262 2.9584 16.5463 2.96462 16.7616 2.97675Z" fill="#FFD7C2"/>
<path d="M11.7538 10.5035C11.7538 10.4755 11.7516 10.4481 11.7471 10.4214C11.9179 9.04433 14.2331 7.77217 16.2839 7.77217C19.0082 7.77217 20.5149 10.9562 20.5149 12.5859C20.5149 13.8686 22.4478 13.8837 22.4478 12.5859C22.4478 10.7147 20.6215 5.85571 16.6035 5.85571C12.722 5.85571 10.8929 8.52442 10.7732 10.3654C10.7606 10.4093 10.7538 10.4556 10.7538 10.5035V25.3371C10.7538 25.5994 10.827 25.8537 10.9897 26.0768C11.0163 26.1134 11.0448 26.1483 11.0749 26.1816C11.6323 26.8491 12.8282 27.0725 13.6662 27.0725C14.7924 27.0725 17.2428 26.3331 17.5776 24.0092C17.7687 22.6825 17.5776 21.7155 16.4209 21.7155C15.8222 21.7155 15.4648 22.4047 15.05 23.2046C14.4462 24.3689 13.721 25.7675 11.9529 25.615C11.8672 25.566 11.8218 25.5207 11.7978 25.4877C11.7706 25.4505 11.7538 25.4068 11.7538 25.3371L11.7538 15.4753C12.9667 16.2687 18.8283 20.0998 19.1147 20.2216C19.4343 20.3574 19.6474 20.0254 19.3278 19.7387C19.0408 19.4813 12.9878 13.8717 11.7538 12.728L11.7538 10.5035Z" fill="#F1B99B"/>
<path d="M7.05975 13.0727C6.86253 11.199 7.30953 8.67622 8.76817 6.63428C10.2096 4.61647 12.6638 3.03125 16.5781 3.03125V2.03125C12.3518 2.03125 9.58988 3.76361 7.95446 6.05301C6.33627 8.3183 5.84577 11.0923 6.06525 13.1773C6.161 14.087 6.41701 14.7953 6.78323 15.352C7.14958 15.9089 7.60985 16.2892 8.07805 16.5656C8.54047 16.8386 9.01757 17.0137 9.40976 17.1545L9.42509 17.16C9.83768 17.3082 10.1073 17.4049 10.2821 17.5233C10.4809 17.6581 10.6142 17.8292 10.7038 18.0077C10.6585 18.1137 10.169 19.2951 10.5869 19.875C10.7461 20.0958 10.9582 20.0364 11.2661 19.95C11.4102 19.9096 11.5752 19.8633 11.7656 19.8371V23.0312C12.5471 23.0052 14 22.5 14 20.5625L13.9983 20.56C14.0333 19.8125 13.5444 18.5003 11.7987 18.1115C11.6861 17.6531 11.4304 17.0934 10.8429 16.6954C10.5592 16.5032 10.1764 16.3665 9.83286 16.2438L9.74764 16.2133C9.35444 16.0722 8.95862 15.9242 8.58647 15.7045C8.22012 15.4882 7.88421 15.2061 7.61866 14.8024C7.35299 14.3986 7.14139 13.8483 7.05975 13.0727Z" fill="#E1D8EC"/>
<path d="M16.5625 3.03125V2.02734C24.6875 2.02734 28.0156 10.3594 28.0156 13.7188V17.0312C28.0156 18.9219 26.0052 19.9219 25 19.9688H22.0625C22.0625 19.9688 22.5404 19.2229 23.3203 17.8438C24.1887 16.3083 25.4166 14.0063 25.375 11.9531C25.25 5.78125 20.2031 3.03125 16.5625 3.03125Z" fill="#9B9B9B"/>
</svg>

<svg xmlns="http://www.w3.org/2000/svg" width="32" height="32" fill="none"><path fill="#E1D8EC" d="M26.969 11H28.5a.5.5 0 0 1 .5.5v4a.5.5 0 0 1-.5.5h-1.531v-5Z"/><path fill="#FFD7C2" d="M16.762 2.977 17 2.5c2.333.167 7.3 1.7 8.5 6.5 1.2 4.8-1.167 9-2.5 10.5l-.909.454-2.336 4.186c-.204.37-.407.735-.61 1.091l-.21.352c-.94 1.59-2.61 4.417-6.152 4.417C9.74 30 7 27.208 7 23.36V11.71c0-4.677 3.653-8.752 9.101-8.752.225 0 .445.007.66.019Z"/><path fill="#F1B99B" d="M11.754 10.504a.493.493 0 0 0-.007-.083c.17-1.377 2.486-2.649 4.537-2.649 2.724 0 4.23 3.184 4.23 4.814 0 1.283 1.934 1.298 1.934 0 0-1.871-1.826-6.73-5.845-6.73-3.881 0-5.71 2.668-5.83 4.51a.5.5 0 0 0-.02.138v14.833a1.235 1.235 0 0 0 .322.845c.557.667 1.753.89 2.591.89 1.126 0 3.577-.739 3.912-3.063.19-1.326 0-2.294-1.157-2.294-.599 0-.956.69-1.371 1.49-.604 1.164-1.329 2.563-3.097 2.41a.483.483 0 0 1-.155-.127.237.237 0 0 1-.044-.15v-9.863c1.213.794 7.074 4.625 7.36 4.747.32.135.533-.197.214-.483-.287-.258-6.34-5.867-7.574-7.011v-2.224Z"/><path fill="#E1D8EC" d="M7.06 13.073c-.197-1.874.25-4.397 1.708-6.439 1.442-2.018 3.896-3.603 7.81-3.603v-1c-4.226 0-6.988 1.733-8.624 4.022-1.618 2.265-2.108 5.04-1.889 7.124.096.91.352 1.618.718 2.175a3.87 3.87 0 0 0 1.295 1.214c.462.273.94.448 1.332.588l.015.006c.413.148.682.245.857.363.199.135.332.306.422.485-.046.106-.535 1.287-.117 1.867.16.22.371.161.68.075.143-.04.308-.087.499-.113v3.194C12.547 23.005 14 22.5 14 20.563l-.002-.003c.035-.747-.454-2.06-2.2-2.448-.112-.459-.368-1.019-.955-1.417-.284-.192-.667-.329-1.01-.451l-.085-.03c-.394-.142-.79-.29-1.162-.51a2.871 2.871 0 0 1-.967-.902c-.266-.403-.478-.954-.56-1.73Z"/><path fill="#9B9B9B" d="M16.563 3.031V2.027c8.125 0 11.453 8.332 11.453 11.692v3.312c0 1.89-2.01 2.89-3.016 2.938h-2.938s.478-.746 1.258-2.125c.869-1.536 2.097-3.838 2.055-5.89-.125-6.173-5.172-8.923-8.813-8.923Z"/></svg>
